app/public/dtpr-icons/arts.svg

<svg width="36" height="36" viewBox="0 0 36 36" fill="none" xmlns="http://www.w3.org/2000/svg">
<path d="M31.8564 8.8453L19 1.42265C18.3812 1.06538 17.6188 1.06538 17 1.42265L4.14359 8.8453C3.52479 9.20257 3.14359 9.86282 3.14359 10.5774V25.4226C3.14359 26.1372 3.52479 26.7974 4.14359 27.1547L17 34.5774C17.6188 34.9346 18.3812 34.9346 19 34.5774L31.8564 27.1547C32.4752 26.7974 32.8564 26.1372 32.8564 25.4226V10.5774C32.8564 9.86282 32.4752 9.20256 31.8564 8.8453Z" fill="black" stroke="black" stroke-width="2"/>
<mask id="mask0" mask-type="alpha" maskUnits="userSpaceOnUse" x="9" y="8" width="19" height="20">
<path fill-rule="evenodd" clip-rule="evenodd" d="M9 8.00006H27.8778V28H9V8.00006Z" fill="white"/>
</mask>
<g mask="url(#mask0)">
<path fill-rule="evenodd" clip-rule="evenodd" d="M24.3343 15.271C23.5203 15.692 22.5233 15.375 22.1023 14.56C21.6813 13.747 21.9993 12.75 22.8133 12.329C23.6273 11.908 24.6243 12.225 25.0453 13.04C25.4663 13.853 25.1483 14.85 24.3343 15.271ZM19.3633 12.869C18.5493 13.29 17.5523 12.972 17.1313 12.159C16.7103 11.344 17.0283 10.347 17.8423 9.92599C18.6563 9.50499 19.6533 9.82299 20.0743 10.637C20.4953 11.452 20.1773 12.448 19.3633 12.869ZM14.4593 15.405C13.6453 15.826 12.6473 15.508 12.2273 14.694C11.8063 13.879 12.1233 12.883 12.9383 12.462C13.7513 12.042 14.7493 12.359 15.1693 13.172C15.5903 13.987 15.2733 14.984 14.4593 15.405ZM13.5443 20.849C12.7303 21.27 11.7333 20.953 11.3133 20.139C10.8923 19.325 11.2093 18.328 12.0233 17.907C12.8373 17.486 13.8343 17.803 14.2553 18.618C14.6763 19.431 14.3593 20.428 13.5443 20.849ZM14.3763 9.23299C9.5013 11.752 7.5913 17.75 10.1113 22.625C12.6323 27.5 18.6283 29.409 23.5033 26.888C24.3173 26.467 24.6353 25.47 24.2143 24.656C24.0163 24.274 23.6913 24.006 23.3193 23.863C22.9623 23.725 22.6373 23.458 22.4443 23.084C22.0233 22.271 22.3413 21.274 23.1553 20.853L24.8913 19.956C27.5993 18.556 28.6603 15.222 27.2603 12.515C25.0193 8.17999 19.2513 6.71199 14.3763 9.23299Z" fill="white"/>
</g>
</svg>

<svg xmlns="http://www.w3.org/2000/svg" width="36" height="36" fill="none"><path fill="#000" stroke="#000" stroke-width="2" d="M31.856 8.845 19 1.423a2 2 0 0 0-2 0L4.144 8.845a2 2 0 0 0-1 1.732v14.846a2 2 0 0 0 1 1.732L17 34.577a2 2 0 0 0 2 0l12.856-7.422a2 2 0 0 0 1-1.732V10.577a2 2 0 0 0-1-1.732Z"/><mask id="a" width="19" height="20" x="9" y="8" mask-type="alpha" maskUnits="userSpaceOnUse"><path fill="#fff" fill-rule="evenodd" d="M9 8h18.878v20H9z" clip-rule="evenodd"/></mask><g mask="url(#a)"><path fill="#fff" fill-rule="evenodd" d="M24.334 15.271a1.653 1.653 0 0 1-2.232-.711 1.653 1.653 0 0 1 .711-2.231 1.653 1.653 0 0 1 2.232.711c.421.813.103 1.81-.71 2.231m-4.97-2.402a1.655 1.655 0 0 1-2.233-.71 1.655 1.655 0 0 1 .711-2.233 1.654 1.654 0 0 1 2.232.711 1.654 1.654 0 0 1-.71 2.232m-4.905 2.536a1.654 1.654 0 0 1-2.232-.711 1.653 1.653 0 0 1 .711-2.232 1.655 1.655 0 0 1 2.231.71 1.655 1.655 0 0 1-.71 2.233m-.915 5.444a1.653 1.653 0 0 1-2.23-.71 1.654 1.654 0 0 1 .71-2.232 1.653 1.653 0 0 1 2.231.711c.421.813.104 1.81-.71 2.231m.832-11.616c-4.875 2.519-6.785 8.517-4.265 13.392s8.517 6.784 13.392 4.263a1.654 1.654 0 0 0 .711-2.232 1.67 1.67 0 0 0-.895-.793 1.66 1.66 0 0 1-.875-.779 1.653 1.653 0 0 1 .711-2.231l1.736-.897a5.524 5.524 0 0 0 2.37-7.441c-2.242-4.335-8.01-5.803-12.885-3.282" clip-rule="evenodd"/></g></svg>
